X: 13571
T: Flying Accordion, The
R: reel
M: 4/4
K: Dmajor
|:fddd edBd|A2AA BABd|e(ff)d edBd|gafd edBA|
fddd edBd|A3f edef|ga3 fdef|edBA d4:|
|:b3d' b2a2|(f4 f)ded|ABBB g2B(g|g)aba f2ed|
b3d' b2a2|(f4 f)def|gbag f2ed|edBA d4:|

